X:1
T:Princess Nancy
C:Liz Carroll
R:Jig
D:Sualtam: Irish music
S:cours Emily Hawkes
Q:1/4=120
M:6/8
L:1/8
K:G
|: B2A BGE | EDE GGG | B2B deg | abg eag |
   ede g2a | ged ege | dBA BGE | EDE G3  :|
   B2g edB | BAB dBG | A2A AB/c/d | A2A BGE |
   B2g edB | BAB dBG | A2A BGE | EDE G2G |
   B2g edB | BAB dBG | A3 AB/c/d | egd ega |
   bag age | ged e/f/ge | d2A BGE | EDE G3 |]
